!!!COM: Corelli, Arcangelo
!!!OPR: Sonata da chiesa
!!!OPS: 1
!!!ONM: 6
!!!OMV: 2
!!!OMD: Largo
**kern	**fb	**kern	**kern	**kern
*part4	*part4	*part3	*part2	*part1
*staff4	*	*staff3	*staff2	*staff1
*I"Organo	*	*I"Violone	*I"Violino II	*I"Violino I
*clefF4	*	*clefF4	*clefG2	*clefG2
*k[f#c#]	*	*k[f#c#]	*k[f#c#]	*k[f#c#]
*M4/4	*	*M4/4	*M4/4	*M4/4
=1	=1	=1	=1	=1
8BBL	.	8BBL	1r	4r
8B	.	8B	.	.
8A	.	8A	.	8r
8GJ	.	8GJ	.	8b
4F#	#	4F#	.	8ff#L
.	.	.	.	8ff#J
4E	6 5	4E	.	8.ggL
.	.	.	.	16ggJk
=2	=2	=2	=2	=2
8DL	6	8DL	1r	4ff#
8EJ	.	8EJ	.	.
4F#	#	4F#	.	8r
.	.	.	.	8ff#
4G#X	6 5	4G#X	.	8eeL
.	.	.	.	8eeJ
4A#X	5	4A#X	.	8ee
.	.	.	.	16ff#LL
.	.	.	.	16eeJJ
=3	=3	=3	=3	=3
8BL	.	8BL	1r	4.dd
8A#X	.	8A#X	.	.
8B	.	8B	.	.
8BBJ	.	8BBJ	.	16eeLL
.	.	.	.	16ddJJ
8F#L	5 #	8F#L	.	8cc#L
8E	7 5	8E	.	8ddJ
8F#	5 4	8F#	.	8.cc#L
8FF#J	#	8FF#J	.	.
.	.	.	.	16bJk
=4	=4	=4	=4	=4
4.BB	.	4.BB	4r	16bLL
.	.	.	.	16bb
.	.	.	.	16aa
.	.	.	.	16ggJJ
.	.	.	8r	8ff#L
8F#	5	8F#	8f#	8aaJ
8E#XL	6 5	8E#XL	8cc#L	8gg#X
8F#J	.	8F#J	8cc#J	(16aaLL
.	.	.	.	16gg#JJ)
4BB	5	4BB	8.ddL	8ff#
.	.	.	.	(16gg#LL
.	.	.	16ddJk	16ff#JJ)
=5	=5	=5	=5	=5
4.C#	#r5	4.C#	4cc#	8ee#XL
.	.	.	.	8cc#J
.	6	.	8r	[4aa
8C#	.	8C#	8cc#	.
4D#X	6 5	4D#X	8bL	8aa]
.	.	.	8bJ	(16bbLL
.	.	.	.	16aaJJ)
4E#X	5	4E#X	8b	[4gg#X
.	.	.	16cc#LL	.
.	.	.	16bJJ	.
=6	=6	=6	=6	=6
4.F#	9	4.F#	4.a	8gg#]
.	.	.	.	16aaLL
.	.	.	.	16gg#XJJ
.	8	.	.	2ff#
8AA	6	8AA	16bLL	.
.	.	.	16aJJ	.
4BB	#6\ 5	4BB	8g#XL	.
.	.	.	8aJ	.
4C#	#5\ 4	4C#	8.g#L	8.ff#L
.	#	.	16g#Jk	16ee#XJk
=7	=7	=7	=7	=7
4FF#	.	4FF#	8f#L	4.ff#
.	.	.	8cc#J	.
4D	5	4D	[4ff#	.
.	.	.	.	8aa
4BB	6 5	4BB	8ff#]	4.gg
.	.	.	(16eeLL	.
.	.	.	16ddJJ)	.
4C#	5	4C#	8eeL	.
.	.	.	8eeJ	(16aaLL
.	.	.	.	16ggJJ)
=8	=8	=8	=8	=8
4D	9	4D	8eeL	4.ff#
.	.	.	8aJ	.
4F#	6	4F#	[4dd	.
.	.	.	.	(16ggLL
.	.	.	.	16ff#JJ)
4G#X	6 5	4G#X	8dd]	8eeL
.	.	.	(16cc#LL	8eeJ
.	.	.	16bJJ)	.
4A#X	5	4A#X	8cc#L	8ee
.	.	.	8cc#J	(16ff#LL
.	.	.	.	16eeJJ)
=9	=9	=9	=9	=9
4.B	9	4.B	8cc#L	4.dd
.	.	.	8f#J	.
.	8	.	4b	.
8BB	.	8BB	.	8dd
8F#L	#	8F#L	4a#X	8cc#
8F#J	.	8F#J	.	(16ddLL
.	.	.	.	16cc#JJ)
8.GL	7	8.GL	4b	8b
.	6	.	.	(16cc#LL
16GJk	.	16GJk	.	16bJJ)
=10	=10	=10	=10	=10
4F#	#	4F#	4cc#	8a#XL
.	.	.	.	8cc#J
8r	.	8r	8r	[4dd
8F#	6 n	8F#	8aa	.
8EL	7	8EL	8ggL	8dd]
8EJ	.	8EJ	8ggJ	(16cc#LL
.	.	.	.	16bJJ)
8E	6	8E	8gg	8cc#L
16F#LL	.	16F#LL	(16aaLL	8cc#J
16EJJ	.	16EJJ	16ggJJ)	.
=11	=11	=11	=11	=11
4D	7	4D	4ff#	8cc#L
.	.	.	.	8f#J
8r	.	8r	8r	2b
8D	6	8D	8ff#	.
4C#	7	4C#	8ee	.
.	.	.	(16ff#LL	.
.	.	.	16ggJJ)	.
4F#	#	4F#	8.ff#L	4a#X
.	.	.	16eeJk	.
=12	=12	=12	=12	=12
4BB	.	4BB	8ddL	8bL
.	.	.	8bJ	8ddJ
8r	.	8r	8r	[4gg
8B	6	8B	8dd	.
4.A	7	4.A	8cc#L	8gg]
.	.	.	8cc#J	(16aaLL
.	.	.	.	16ggJJ)
.	6	.	8cc#	[4ff#
16BLL	.	16BLL	(16ddLL	.
16AJJ	.	16AJJ	16cc#JJ)	.
=13	=13	=13	=13	=13
4.G	7	4.G	4.b	8ff#]
.	.	.	.	16ggLL
.	.	.	.	16ff#JJ
.	6	.	.	8.eeL
8G	.	8G	(16cc#LL	.
.	.	.	16bJJ)	16ff#Jk
4F#	#	4F#	4a#X	8ff#L
.	.	.	.	8cc#J
4D	nr5	4D	8r	[4ff#
.	.	.	8aani	.
=14	=14	=14	=14	=14
4BB	6 5	4BB	4.gg	8ff#]
.	.	.	.	(16eeLL
.	.	.	.	16ddJJ)
4C#	5	4C#	.	8eeL
.	.	.	16aaLL	8eeJ
.	.	.	16ggJJ	.
4.D	9	4.D	4.ff#	8eeL
.	.	.	.	8aJ
.	8	.	.	[4dd
8D	.	8D	8ff#	.
=15	=15	=15	=15	=15
8AL	4	8AL	8eeL	8ddL]
8AJ	3	8AJ	8aa	8cc#J
8.BL	7	8.BL	8aa	8dd
.	.	.	8ggJ	(16eeLL
16BJk	6	16BJk	.	16ddJJ)
4A	7	4A	8gg	4cc#
.	.	.	(16ff#LL	.
.	.	.	16eeJJ)	.
8r	.	8r	[4ff#	8r
8A	6	8A	.	(16ddLL
.	.	.	.	16cc#JJ)
=16	=16	=16	=16	=16
8GL	7	8GL	8ff#]	8bL
8GJ	.	8GJ	(16eeLL	8bJ
.	.	.	16ddJJ)	.
8G	6	8G	8eeL	8b
16ALL	.	16ALL	8eeJ	(16cc#LL
16GJJ	.	16GJJ	.	16bJJ)
4.F#	7	4.F#	8eeL	4.a
.	.	.	8aJ	.
.	6	.	[4dd	.
8F#	.	8F#	.	(16bLL
.	.	.	.	16aJJ)
=17	=17	=17	=17	=17
4E	7	4E	4dd]	8g
.	.	.	.	(16aLL
.	.	.	.	16bJJ)
4A	.	4A	4cc#	8.aL
.	.	.	.	16gJk
8DL	.	8DL	4dd	4f#
8dJ	.	8dJ	.	.
4B	5	[4B	8r	8r
.	.	.	8dd	8ff#
=18	=18	=18	=18	=18
8B	4 2	8B]	4cc#	4ee
(16ALL	.	(16ALL	.	.
16GJJ)	.	16GJJ)	.	.
[4A	6	8AL	8r	8r
.	.	8AJ	(16ddLL	(16ff#LL
.	.	.	16cc#JJ)	16eeJJ)
8A]	4 2	8A	4b	4dd
(16GLL	.	(16GLL	.	.
16F#JJ)	.	16F#JJ)	.	.
[4G	6	[4G	8r	8r
.	.	.	(16cc#LL	(16eeLL
.	.	.	16bJJ)	16ddJJ)
=19	=19	=19	=19	=19
8G]	4 2	8G]	4a	4cc#
(16F#LL	.	(16F#LL	.	.
16EJJ)	.	16EJJ)	.	.
4F#	6	8F#L	8r	8r
.	.	8F#J	8dd	8ff#
4G#X	6 5	4G#X	8dd	4.ee
.	.	.	(16cc#LL	.
.	.	.	16bJJ)	.
4A#X	5	4A#X	8cc#L	.
.	.	.	8cc#J	16ff#LL
.	.	.	.	16eeJJ
=20	=20	=20	=20	=20
4.B	9	4.B	8cc#	4.dd
.	.	.	(16bLL	.
.	.	.	16a#XJJ)	.
.	8	.	8bL	.
8BB	.	8BB	8ddJ	8bb
4C#	7	4C#	8eeL	8bb
.	6	.	8ee	(16aaLL
.	.	.	.	16ggJJ)
4D#X	5	4D#X	8ff#	8aaL
.	.	.	8ff#J	8aaJ
=21	=21	=21	=21	=21
4.E	5 4	4.E	4b	8aa
.	.	.	.	(16ggLL
.	.	.	.	16ff#JJ)
.	3	.	8r	8ggL
8GG	6	8GG	8b	8ggJ
4AA	7	4AA	8ccnL	8gg
.	-6	.	8cc	(16ffnLL
.	.	.	.	16eeJJ)
4BB	-5	4BB	8dd	8ffL
.	.	.	8ddJ	8ffJ
=22	=22	=22	=22	=22
4.Cn	5 -4	4.Cn	4.g	8ffn
.	.	.	.	(16eeLL
.	.	.	.	16dd#XJJ)
.	3	.	.	2ee
8GG	6	8GG	8b	.
4AA	-	4AA	(16ccnLL	.
.	.	.	16b)	.
.	.	.	(16a	.
.	.	.	16gJJ)	.
4BB	5 4	4BB	8.f#L	8.eeL
.	#3\	.	16f#Jk	16dd#Jk
=23	=23	=23	=23	=23
4E	.	4E	8eL	4ee
.	.	.	8bJ	.
4Cn	6	4Cn	4ee	8r
.	.	.	.	8e
8BBL	6	8BBL	4r	8bL
8G	.	8G	.	8b
8E	-r6	8E	8r	8ccn
8F#J	-r5	8F#J	8aa	8ccJ
=24	=24	=24	=24	=24
4.G	5 -4	4.G	4.dd	8ccn
.	.	.	.	(16bLL
.	.	.	.	16aJJ)
.	3	.	.	8bL
8BB	6	8BB	8dd	8bbJ
4C#	7	4C#	8eeL	8bbL
.	6	.	8ee	8aa
4D#X	5	4D#X	8ff#	8aa
.	.	.	8ff#J	8aaJ
=25	=25	=25	=25	=25
4.E	5 4	4.E	4.b	8aa
.	.	.	.	(16ggLL
.	.	.	.	16ff#JJ)
.	3	.	.	8ggL
8E	.	8E	8b	8ggJ
4.AA#X	6 5	4.AA#X	8cc#L	8ff#L
.	.	.	8cc#	8eeJ
.	.	.	8cc#	8ee
8AA#	.	8AA#	8cc#J	(16ff#LL
.	.	.	.	16eeJJ)
=26	=26	=26	=26	=26
4.BB	9	4.BB	8cc#	4.dd
.	.	.	(16bLL	.
.	.	.	16a#XJJ)	.
.	8	.	8bL	.
8B	6	8B	[8ggJ	8dd
4A	7	4A	8gg]	4cc#
.	6	.	4ff#	.
4G	7	4G	.	4b
.	6	.	8ff#	.
=27	=27	=27	=27	=27
4F#	#	4F#	4ff#	4a#X
4D	5	4D	[4aa	4r
4G	9	4G	8aa]	4.bb
.	.	.	(16ggLL	.
.	.	.	16ff#JJ)	.
4E	5	4E	8ggL	.
.	.	.	8ggJ	8ee
=28	=28	=28	=28	=28
4C#	6 5	4C#	8gg	4.aa
.	.	.	(16ff#LL	.
.	.	.	16eeJJ)	.
4D	.	4D	[4ff#	.
.	.	.	.	8dd
4BB	6 5	4BB	8ff#]	4.gg
.	.	.	(16eeLL	.
.	.	.	16ddJJ)	.
4C#	5	4C#	8eeL	.
.	.	.	8eeJ	(16aaLL
.	.	.	.	16ggJJ)
=29	=29	=29	=29	=29
4.D	9	4.D	8eeL	4ff#
.	.	.	8aJ	.
.	8	.	2dd	8r
8F#	6	8F#	.	8a
4G	6 5	4G	.	(16bLL
.	.	.	.	16a)
.	.	.	.	(16g
.	.	.	.	16f#JJ)
4A	.	4A	4cc#	8.eL
.	.	.	.	16eJk
=30	=30	=30	=30	=30
4D	.	4D	8ddL	4d
.	.	.	8f#J	.
4r	.	4r	4b	8r
.	.	.	.	8b
2r	.	2r	4r	8ff#L
.	.	.	.	8ff#J
.	.	.	8r	8.ggL
.	.	.	8bb	.
.	.	.	.	16ggJk
=31	=31	=31	=31	=31
4r	.	4r	4.aa	8ggL
.	.	.	.	8cc#J
8r	.	8r	.	[4ff#
8F#	.	8F#	(16bbLL	.
.	.	.	16aaJJ)	.
8BL	6 5	8BL	4.gg	8ff#]
8BJ	.	8BJ	.	(16ggLL
.	.	.	.	16ff#JJ)
8.c#L	5	8.c#L	.	8eeL
.	.	.	(16aaLL	8eeJ
16c#Jk	.	16c#Jk	16ggJJ)	.
=32	=32	=32	=32	=32
4.d	9	4.d	4.ff#	8eeL
.	.	.	.	8aJ
.	8	.	.	2dd
8F#	6	8F#	8aa	.
4G	6 5	4G	8bbL	.
.	.	.	8eeJ	.
4A	.	4A	8.eeL	4cc#
.	.	.	16ddJk	.
=33	=33	=33	=33	=33
4D	.	4D	4.dd	8ddL
.	.	.	.	8f#J
8r	.	8r	.	4b
8BB	.	8BB	8dd	.
8F#L	#	8F#L	8cc#	4a#X
8F#J	.	8F#J	(16ddLL	.
.	.	.	16cc#JJ)	.
8.GL	7	8.GL	8b	4b
.	6	.	(16cc#LL	.
16GJk	.	16GJk	16bJJ)	.
=34	=34	=34	=34	=34
4F#	#	4F#	8a#XL	4cc#
.	.	.	8cc#J	.
4D	5	4D	[4ff#	8r
.	.	.	.	8aa
4BB	6 5	4BB	8ff#]	4.gg
.	.	.	(16eeLL	.
.	.	.	16ddJJ)	.
4C#	5	4C#	8eeL	.
.	.	.	8eeJ	(16aaLL
.	.	.	.	16ggJJ)
=35	=35	=35	=35	=35
4D	9	4D	8eeL	4.ff#
.	.	.	8aJ	.
4F#	6	4F#	[4dd	.
.	.	.	.	(16ggLL
.	.	.	.	16ff#JJ)
4G#X	6 5	4G#X	8dd]	8eeL
.	.	.	(16cc#LL	8eeJ
.	.	.	16bJJ)	.
4A#X	5	4A#X	8cc#L	8ee
.	.	.	8cc#J	(16ff#LL
.	.	.	.	16eeJJ)
=36	=36	=36	=36	=36
4.B	9	4.B	8cc#L	4.dd
.	.	.	8f#J	.
.	8	.	2b	.
8BB	.	8BB	.	(16eeLL
.	.	.	.	16ddJJ)
8F#L	5 4	8F#L	.	8cc#L
8E	7 5	8E	.	8ddJ
8F#	5 4	8F#	8.bL	8.cc#L
8FF#J	#	8FF#J	.	.
.	.	.	16a#XJk	16cc#Jk
=37	=37	=37	=37	=37
4BB	.	4BB	4b	4b
4D	5	4D	[4ff#	8r
.	.	.	.	8aa
4BB	6 5	4BB	8ff#]	4.gg
.	.	.	(16eeLL	.
.	.	.	16ddJJ)	.
4C#	5	4C#	8eeL	.
.	.	.	8eeJ	(16aaLL
.	.	.	.	16ggJJ)
=38	=38	=38	=38	=38
4D	9	4D	8eeL	4.ff#
.	.	.	8aJ	.
4F#	6	4F#	[4dd	.
.	.	.	.	(16ggLL
.	.	.	.	16ff#JJ)
4G#X	6 5	4G#X	8dd]	8eeL
.	.	.	(16cc#LL	8eeJ
.	.	.	16bJJ)	.
4A#X	5	4A#X	8cc#L	8ee
.	.	.	8cc#J	16ff#LL
.	.	.	.	16eeJJ
=39	=39	=39	=39	=39
4.B	9	4.B	8cc#L	4.dd
.	.	.	8f#J	.
.	8	.	2b	.
8BB	.	8BB	.	(16eeLL
.	.	.	.	16ddJJ)
8F#L	5 4	8F#L	.	8cc#L
8E	7 5	8E	.	8ddJ
8F#	5 4	8F#	8.bL	8.cc#L
8FF#J	#	8FF#J	.	.
.	.	.	16a#XJk	16cc#Jk
=40	=40	=40	=40	=40
1BB	.	1BB	1b	1b
=:|!	=:|!	=:|!	=:|!	=:|!
*-	*-	*-	*-	*-
!!!system-decoration: [{s1,s2},s3,s4]
!!!YEM: CC BY-NC-SA 4.0; CCARH; DCML
!!!RDF**kern: i = editorial accidental